Sources/FrostedUI/Resources/Icons.xcassets/paypal32.imageset/paypal-32.svg

<svg width="32" height="32" viewBox="0 0 32 32" fill="none" xmlns="http://www.w3.org/2000/svg" data-fui-icon="true">
  <path
    d="M17.6787 3.01367C21.7513 3.01367 23.9124 4.47261 24.9746 6.25879C25.2192 6.67015 25.398 7.08916 25.5293 7.49609C27.5383 8.39666 28.5865 9.74477 29.0996 11.0352C29.618 12.3388 29.5728 13.5314 29.5176 14.0527C29.4999 14.2199 29.4785 14.3821 29.458 14.5352L29.4561 14.5449C29.3504 15.3352 28.8939 17.7387 27.0449 19.9561C25.1687 22.2057 21.9321 24.1748 16.4502 24.1748H15C14.772 24.1751 14.575 24.3369 14.5303 24.5605L13.6973 28.7295C13.5121 29.6542 12.699 30.3204 11.7559 30.3203L7.83105 30.3193C6.73057 30.319 5.90818 29.3064 6.13477 28.2295L6.47168 26.6328H4.1582C3.04984 26.6325 2.22653 25.6065 2.4668 24.5244L6.68848 5.52539C7.01462 4.0581 8.3163 3.01407 9.81934 3.01367H17.6787ZM25.8545 9.375C25.8728 9.8386 25.847 10.2074 25.8232 10.4199C25.8082 10.5544 25.7908 10.6861 25.7705 10.8213C25.6672 11.5087 25.2125 13.6272 23.3496 15.5791C21.4671 17.5514 18.2366 19.2598 12.7637 19.2598H11.2656C11.0461 19.26 10.854 19.41 10.8008 19.623L9.42285 25.1348C9.24551 25.8432 8.69824 26.3801 8.01855 26.5635L7.60254 28.5381C7.57218 28.6828 7.68329 28.819 7.83105 28.8193L11.7568 28.8203C11.9849 28.8201 12.1808 28.6582 12.2256 28.4346L13.0596 24.2656C13.2447 23.341 14.0571 22.6751 15 22.6748H16.4502C21.5253 22.6748 24.325 20.8755 25.8926 18.9961C27.4864 17.0849 27.8825 14.999 27.9697 14.3467L27.9707 14.3369L28.0264 13.8945C28.0675 13.5059 28.1012 12.5827 27.7061 11.5889C27.4124 10.8506 26.8703 10.0441 25.8545 9.375ZM9.81934 4.51367C9.01938 4.51407 8.32601 5.06966 8.15234 5.85059L3.93066 24.8496C3.8985 24.9949 4.00942 25.1325 4.1582 25.1328H7.50293C7.72261 25.1328 7.91442 24.9836 7.96777 24.7705L9.3457 19.2588C9.56596 18.3781 10.3578 17.76 11.2656 17.7598H12.7637C17.8996 17.7598 20.7119 16.1698 22.2646 14.543C23.8358 12.8965 24.2093 11.1157 24.2871 10.5986C24.3044 10.4834 24.3189 10.3701 24.332 10.2529L24.3516 10.0273C24.3908 9.40663 24.3601 8.1598 23.6855 7.02539C22.9552 5.79735 21.3549 4.51367 17.6787 4.51367H9.81934Z"
    fill="currentColor"
  />
</svg>

<svg xmlns="http://www.w3.org/2000/svg" width="32" height="32" fill="none" data-fui-icon="true" viewBox="0 0 32 32"><path fill="currentColor" d="M17.679 3.014c4.072 0 6.233 1.459 7.296 3.245.244.411.423.83.554 1.237 2.01.9 3.058 2.249 3.57 3.54a6.5 6.5 0 0 1 .419 3.017q-.028.252-.06.482l-.002.01c-.106.79-.562 3.194-2.411 5.411-1.876 2.25-5.113 4.219-10.595 4.219H15a.48.48 0 0 0-.47.386l-.833 4.169a1.98 1.98 0 0 1-1.941 1.59H7.83a1.734 1.734 0 0 1-1.696-2.09l.337-1.597H4.158a1.733 1.733 0 0 1-1.691-2.109L6.688 5.525A3.21 3.21 0 0 1 9.82 3.014zm8.176 6.361a7 7 0 0 1-.085 1.446c-.103.688-.558 2.806-2.42 4.758-1.883 1.972-5.113 3.68-10.586 3.68h-1.498a.48.48 0 0 0-.465.364l-1.378 5.512a1.98 1.98 0 0 1-1.404 1.428l-.416 1.975c-.03.145.08.281.228.281l3.926.001a.48.48 0 0 0 .469-.385l.834-4.17a1.98 1.98 0 0 1 1.94-1.59h1.45c5.075 0 7.875-1.8 9.443-3.679 1.593-1.911 1.99-3.997 2.077-4.65v-.01l.056-.441a5 5 0 0 0-.32-2.306c-.294-.738-.836-1.545-1.851-2.214M9.819 4.514c-.8 0-1.493.556-1.667 1.337L3.931 24.85a.233.233 0 0 0 .227.283h3.345c.22 0 .411-.15.465-.363l1.378-5.511a1.98 1.98 0 0 1 1.92-1.5h1.498c5.136 0 7.948-1.59 9.5-3.216 1.572-1.646 1.945-3.427 2.023-3.944a9 9 0 0 0 .045-.346l.02-.226c.039-.62.008-1.867-.666-3.002-.73-1.228-2.331-2.511-6.007-2.511z"/></svg>
